X:1
T:James Gibb editions
T:Far all the saints - Barnby
%%score [ ( 1 2 ) ( 3 4 ) ]
L:1/8
Q:1/4=90
M:4/4
K:Eb
V:1 treble nm="Midi_74"
V:2 treble 
V:3 bass nm="Midi_74"
V:4 bass 
V:1
"^For all the saints (10 10 10. 4)""^William Walsham How\n(1823-97)""^For all the saints""^Joseph Barnby\n(1838-96)""^James Gibb editions" B4 G2 A2 | %1
w: |
 B4 B4 | c2 c2 c2 c2 | c4 B4 || B4 e2 e2 | d2 c2 B2 =AG | F4 c4 | B8 ||[M:4/4] B4 F2 G2 | F4 E4 | %10
w: |||||||||
 B2 B2 c2 B2 | A4!f!"^1" G3 F | B8 | E4 A3 G | F8 | E8 || A4 G4 |] %17
w: |* Al- le-|lu-|ia, Al- le-|lu-|ia.|A- men.|
V:2
 G4 E2 F2 | G4 G4 | A2 A2 A2 A2 | A8 || G4 G2 G2 | ^F2 D2 D2 C2 | D4 E4 | D8 ||[M:4/4] D4 D2 D2 | %9
 D4 E4 | _D2 D2 D2 D2 | C4 !courtesy!=D3 D | E8 | E4 C3 C | D8 | E8 || E4 E4 |] %17
V:3
 B,4 B,2 B,2 | E6 D2 | C2 D2 E2 C2 | F8 || B,4 C2 C2 | =A,2 A,2 B,2 B,2 | B,4 =A,4 | B,8 || %8
[M:4/4]"^1 For all the saints who from their labours rest,\nWho Thee by faith before the world confessed,\nThy Name, O Jesu, be forever blest.\nAlleluia! Alleluia!\n\n2 Thou wast their Rock, their Fortress, and their Might;\nThou, Lord, their Captain in the well-fought fight;\nThou, in the darkness drear, their one true Light.\nAlleluia! Alleluia!\n\n3 O may Thy soldiers, faithful, true, and bold,\nFight as the saints who nobly fought of old,\nAnd win with them the victor’s crown of gold.\nAlleluia! Alleluia!\n\n4 O blest communion, fellowship divine!\nWe feebly struggle, they in glory shine;\nYet all are one in Thee, for all are Thine.\nAlleluia! Alleluia!" B,4 B,2 B,2 | %9
 B,4 B,4 | G,2 G,2 F,2 G,2 | %11
 A,4 B,3"^5 And when the strife is fierce, the warfare long,\nSteals on the ear the distant triumph-song,\nAnd hearts are brave again, and arms are strong.\nAlleluia! Alleluia!\n\n6 The golden evening brightens in the west;\nSoon, soon to faithful warriors comes their rest;\nSweet is the calm of Paradise the blest.\nAlleluia! Alleluia!\n\n7 But lo! there breaks a yet more glorious day:\nThe saints triumphant rise in bright array;\nThe King of Glory passes on His way.\nAlleluia! Alleluia!\n\n8 From earths wide bounds, from oceans farthest coast,\nThrough gates of pearl streams in the countless host,\nSinging to Father, Son and Holy Ghost.\nAlleluia! Alleluia!\n" B, | %12
 B,8 | C4 C3 B, | A,8 | G,8 || C4 B,4 |] %17
V:4
 E,4 E,2 E,2 | E,4 E,4 | A,,2 B,,2 C,2 A,,2 | D,8- || E,4 C,2 C,2 | D,2 ^F,2 G,2 =E,2 | F,4 F,4 | %7
 B,,8 ||[M:4/4] _A,4 A,2 A,2 | A,4 G,4 | E,2 E,2 E,2 E,2 | A,,4 A,3 A, | G,8 | C,4 F,3 F, | B,,8 | %15
 E,8 || A,,4 E,4 |] %17

